img/favicon/favicon.svg

<svg width="152" height="152" viewBox="0 0 152 152" fill="none" xmlns="http://www.w3.org/2000/svg">
<path d="M0 10C0 4.47715 4.47715 0 10 0H142C147.523 0 152 4.47715 152 10V142C152 147.523 147.523 152 142 152H10C4.47715 152 0 147.523 0 142V10Z" fill="black"/>
<path d="M64.2776 73.3901H51.9199L36.4552 95.7752H50.437L64.2776 73.3901ZM76.6353 46.3444H64.7013V95.7752H76.6353V46.3444ZM69.1501 56.4424V46.3444H58.6284C54.4385 46.3444 50.9078 47.027 48.0361 48.3923C45.2115 49.7575 43.0695 51.6641 41.6101 54.1121C40.1507 56.513 39.421 59.3141 39.421 62.5153C39.421 65.6695 40.1507 68.4706 41.6101 70.9186C43.0695 73.3195 45.2115 75.2026 48.0361 76.5678C50.9078 77.933 54.4385 78.6156 58.6284 78.6156H69.1501V69.365H59.4758C57.9222 69.365 56.557 69.1296 55.3801 68.6589C54.2032 68.141 53.3087 67.4113 52.6967 66.4698C52.0847 65.4812 51.7787 64.3043 51.7787 62.939C51.7787 61.5738 52.0847 60.4204 52.6967 59.4789C53.3087 58.4903 54.2032 57.737 55.3801 57.2192C56.557 56.7013 57.9222 56.4424 59.4758 56.4424H69.1501ZM87.1189 46.3444V95.7752H99.0529V46.3444H87.1189ZM94.6042 56.1599H104.278C106.679 56.1599 108.562 56.7013 109.928 57.7841C111.293 58.8669 111.976 60.4439 111.976 62.5153C111.976 64.5396 111.293 66.0932 109.928 67.1759C108.562 68.2587 106.679 68.8001 104.278 68.8001H94.6042V78.6156H104.278C108.468 78.6156 111.976 77.9801 114.8 76.709C117.672 75.3909 119.837 73.5313 121.297 71.1304C122.756 68.6824 123.486 65.8107 123.486 62.5153C123.486 59.1258 122.756 56.2306 121.297 53.8296C119.837 51.4287 117.672 49.5927 114.8 48.3216C111.976 47.0035 108.468 46.3444 104.278 46.3444H94.6042V56.1599Z" fill="white"/>
<circle cx="76" cy="121.775" r="8.70803" fill="#FDD83C"/>
</svg>

<svg width="152" height="152" fill="none" xmlns="http://www.w3.org/2000/svg"><path d="M0 10C0 4.477 4.477 0 10 0h132c5.523 0 10 4.477 10 10v132c0 5.523-4.477 10-10 10H10c-5.523 0-10-4.477-10-10V10Z" fill="#000"/><path d="M64.278 73.39H51.92L36.455 95.775h13.982l13.84-22.385Zm12.357-27.046H64.701v49.431h11.934v-49.43ZM69.15 56.442V46.344H58.628c-4.19 0-7.72.683-10.592 2.048-2.825 1.365-4.967 3.272-6.426 5.72-1.46 2.401-2.189 5.202-2.189 8.403 0 3.154.73 5.956 2.19 8.404 1.459 2.4 3.6 4.284 6.425 5.649 2.872 1.365 6.402 2.048 10.592 2.048H69.15v-9.251h-9.674c-1.554 0-2.919-.235-4.096-.706-1.177-.518-2.071-1.248-2.683-2.19-.612-.988-.918-2.165-.918-3.53 0-1.365.306-2.519.918-3.46.612-.989 1.506-1.742 2.683-2.26 1.177-.518 2.542-.777 4.096-.777h9.674Zm17.97-10.098v49.431h11.934v-49.43H87.119Zm7.485 9.816h9.674c2.401 0 4.284.541 5.65 1.624 1.365 1.083 2.048 2.66 2.048 4.731 0 2.025-.683 3.578-2.048 4.66-1.366 1.084-3.249 1.625-5.65 1.625h-9.674v9.816h9.674c4.19 0 7.698-.636 10.522-1.907 2.872-1.318 5.037-3.178 6.497-5.579 1.459-2.448 2.189-5.32 2.189-8.615 0-3.39-.73-6.284-2.189-8.685-1.46-2.401-3.625-4.237-6.497-5.508-2.824-1.319-6.332-1.978-10.522-1.978h-9.674v9.816Z" fill="#fff"/><circle cx="76" cy="121.775" r="8.708" fill="#FDD83C"/></svg>
